X:1
T:Hail the Holy Night
T:Hail the Holy Night
T:Carl Harold Lowden, 1913
T:Abigail Bradley Hyde (1799-1872)
T:Public Domain Courtesy of the Cyber Hymnal™
T:Public Domain Courtesy of the Cyber Hymnal™
C:Carl Harold Lowden, 1913
Z:Public Domain
Z:Courtesy of the Cyber Hymnal™
%%score ( 1 2 ) 3
L:1/8
Q:1/4=114
M:4/4
K:F
V:1 treble 
V:2 treble 
V:3 bass 
V:1
 C2 | [A,CF]6 [A,CF]2 | [CFA]6 [CFA]2 | [CFc]2 [DFB]2 [CFA]2 [B,CEG]2 | [A,CF]6 [CFA]2 | %5
w: 1.~Be-|fore we|part a-|gain this hap- py|time A|
w: 2.~The|hours, so|fleet, are|filled with thoughts of|love; Good|
w: 3.~A-|round our|hearts its|spir- it weaves a|spell; “Fare-|
 [CEG]6 [CEG]2 | [EGc]6 [EGc]2 | [EGe]2 [FAd]2 [EGc]2 [DFG=B]2 | [CEGc]6 C2 | [A,CF]6 [A,CF]2 | %10
w: hymn we|raise while|glad bells o’er us|chime; We|sing the|
w: will and|peace sent|down from Heav’n a-|bove; Our|friends we|
w: well,” we|say, “in|all things fare thee|well.” May|all we|
 [CFA]6 [CFA]2 | [CFc]2 [DFB]2 [CFA]2 [B,EG]2 | [A,DF]6 [F,CE]2 | [F,B,D]2 [B,DF]2 [DFB]2 [DFBd]2 | %14
w: wond- rous|glor- ies of our|Lord; Our|voic- es blend with|
w: meet with|smiles and words of|cheer; A|gold- en day of|
w: love have|showers of bless- ings|rare And|in the joy of|
 [CFAc]2 [CFA]2 [A,DF]2 [DFB]2 | [CFA]4 [B,CEG]4 | [A,CF]6 ||"^Refrain" c2 | (z2 [Gc]2) x6 | %19
w: glad re- frains in|sweet ac-|cord.|||
w: cher- ished mem- ories|ends the|year.|All||
w: ma- ny Christ- mas|fes- tals|share.|||
 [Ac]2 [GB]2 [FA]2 A2 | (z2 ^C2 D2) [EA]2 | [FA]2 [EG]2 [DF]2 [CE]2 | [B,D]2 [DF]2 [DB]2 [Fd]2 | %23
w: ||||
w: praise to Christ our|* * king;|* His love for-|ev- er sing; In|
w: ||||
 [Fc]4 [FA]2 [Af]2 | [Ge]4 [Fd]4 | [Ec]6 c2 | (z2 E2 F2) [Gc]2 | [Ac]2 [GB]2 [FA]2 A2 | %28
w: |||||
w: fer- vent ad-|o- ra-|tion our|* * hearts|* u- nite; His|
w: |||||
 (z2 [EA]2) x6 | [GA]2 [EG]2 [DF]2 [_EF]2 | [Dd]2 [Fd]2 [Fe]2 [Fd]2 | [Ff]2 [Fc]2 [^Fc]2 [GB]2 | %32
w: ||||
w: |rule o’er earth pro-|claim; ex- alt His|ho- ly name And|
w: ||||
 [FA]4 [EG]4 | F6 |] %34
w: ||
w: hail a-|gain|
w: ||
V:2
 x2 | x8 | x8 | x8 | x8 | x8 | x8 | x8 | x8 | x8 | x8 | x8 | x8 | x8 | x8 | x8 | x6 || x2 | %18
 (c6 E2 F2) | x8 | A6 x2 | x8 | x8 | x8 | x8 | x8 | c6 x2 | x8 | (A6 ^C2 D2) | x8 | x8 | x8 | x8 | %33
 F6 |] %34
V:3
 C,2 | (F,2 C,2 A,,2) F,,2 | (F,2 C,2 A,,2) F,,2 | A,,2 B,,2 C,2 C,2 | (F,2 C,2 A,,2) F,,2 | %5
 (C,2 G,,2 E,,2) C,,2 | (C,2 G,,2 E,,2) C,,2 | C,,2 F,,2 G,,2 G,,2 | (C,2 G,,2 E,,2) C,,2 | %9
 (F,2 C,2 A,,2) F,,2 | (F,2 C,2 A,,2) F,,2 | A,,2 B,,2 C,2 ^C,2 | (D,2 E,2 D,2) A,,2 | %13
 B,,2 B,,2 B,,2 B,,2 | F,2 F,2 D,2 B,,2 | (C,2 D,2) (E,2 C,2) | (F,2 C,2 F,,2) || z2 | %18
 z2 ([C,C]2 [D,C]2) [E,C]2 x2 | [F,C]2 [G,C]2 [A,C]2 z2 | z2 ([A,,A,]2 [=B,,A,]2) [^C,A,]2 | %21
 [D,A,]2 [E,A,]2 [F,A,]2 [A,,F,]2 | [B,,F,]2 [B,,F,]2 [B,,F,]2 [B,,B,]2 | [F,A,]4 [F,C]2 [D,D]2 | %24
 [G,C]4 [G,=B,]4 | [C,C]6 z2 | z2 ([C,C]2 [D,C]2) [E,C]2 | [F,C]2 [G,C]2 [A,C]2 z2 | %28
 z2 ([A,,A,]2 [=B,,A,]2) [^C,A,]2 x2 | [D,A,]2 [E,A,]2 [F,A,]2 [F,A,]2 | %30
 [B,,F,]2 [B,,B,]2 [=B,,^G,]2 [B,,G,]2 | [C,A,]2 [C,A,]2 [D,A,]2 [G,,D]2 | [C,C]4 [C,B,]4 | %33
 [F,A,]6 |] %34

